X: 300
T: The Winter is Past
T: Ta an geimhreadh thart
B: O'Neill's 300
N: "Moderate"
N: "Collected by J.O'Neill"
Z: 1997 by John Chambers <jc@trillian.mit.edu>
M: C
L: 1/8
K:AMix
A \
| AFAB d2g>f | edBA A2cd | (e2f).g (a2g).f | e4- .e2 (ef) |
| (ge)fg (a2g)f | edBA A2AB | d2.gf edB>A | A4- .A2ef |
| gefg a2ba | gfed B2AB | d2gf edB>A | A4 A2z ||


